svg/wifi_settings.svg

<svg xmlns="http://www.w3.org/2000/svg" viewBox="0 0 24 24"><path d="m12 20-3.6-4.8c1-.75 2.25-1.2 3.6-1.2s2.6.45 3.6 1.2zm-7.2-9.6 1.8 2.4C8.1 11.67 9.97 11 12 11s3.9.67 5.4 1.8l1.8-2.4C17.19 8.89 14.7 8 12 8s-5.19.89-7.2 2.4M12 2C7.95 2 4.21 3.34 1.2 5.6L3 8c2.5-1.88 5.62-3 9-3s6.5 1.12 9 3l1.8-2.4C19.79 3.34 16.05 2 12 2M7 24h2v-2H7zm8 0h2v-2h-2zm-4 0h2v-2h-2z"/></svg>

<?xml version="1.0" encoding="UTF-8"?><!DOCTYPE svg PUBLIC "-//W3C//DTD SVG 1.1//EN" "http://www.w3.org/Graphics/SVG/1.1/DTD/svg11.dtd"><svg xmlns="http://www.w3.org/2000/svg" xmlns:xlink="http://www.w3.org/1999/xlink" version="1.1" id="mdi-wifi-settings" width="24" height="24" viewBox="0 0 24 24"><path d="M12 20L8.4 15.2C9.4 14.45 10.65 14 12 14S14.6 14.45 15.6 15.2L12 20M4.8 10.4L6.6 12.8C8.1 11.67 9.97 11 12 11S15.9 11.67 17.4 12.8L19.2 10.4C17.19 8.89 14.7 8 12 8S6.81 8.89 4.8 10.4M12 2C7.95 2 4.21 3.34 1.2 5.6L3 8C5.5 6.12 8.62 5 12 5S18.5 6.12 21 8L22.8 5.6C19.79 3.34 16.05 2 12 2M7 24H9V22H7V24M15 24H17V22H15V24M11 24H13V22H11V24Z" /></svg>
